X:1
T:Queen of the Night Aria
T:Queen of the Night
C:W.A.Mozart
%%score 1 2 3 4
L:1/8
Q:1/4=140
M:4/4
K:C
V:1 treble+8 nm="Soprano"
V:2 treble nm="Alto"
V:3 treble nm="Tenor"
V:4 bass+8 nm="Bass"
V:1
"^Allegro assai" z8 | z4 z EEE | A3 E ccBB | A2 E2 z4 | d4 z2 B^G | e2 A2 z4 | _B4 ^c3 c | %7
 d2 e2 f4- | f2 d2 _B2 A2 | ^G2 z2 z4 | C4 E2 G2 | c4 z2 z G | (ed) (cB) (AG) (FE) | F2 d2 z2 z d | %14
 (fe) (dc) (BA) (GF) | E2 c2 z4 | z2 F2 A2 c2 | f4 e4 | _e3 c e3 c | B4 z2 G2 | c4 d4 | e4 z2 GG | %22
 c3 c d3 d | e4 z2{f} (e/d/e/f/) | .g.g.g.g .g.g.g.g | c4 z2{d} (c/B/c/d/) | .e.e.e.e .e.e.e.e | %27
 A4 z2{B} (A/G/A/B/) | cccG dddG | eceg c'gaf | gceg c'gaf | g2 z2 c3 c | d4 f4 | G6 (AB) | %34
 c4 z2{f} (e/d/e/f/) | .g.g.g.g .g.g.g.g | c4 z2{d} (c/B/c/d/) | .e.e.e.e .e.e.e.e | %38
 A4 z2{B} (A/G/A/B/) | cccG dddG | eceg c'gaf | gceg c'gaf | g2 z2 c4 | d3 d _e3 e | =e4 c4 | %45
 G6 (AB) | c2 z2 z4 | z8 | z8 | z8 | z8 | z4 z2 z c | c3 c c3 c | c2 C2 z2 z c | c3 c c3 c | %55
 c2 C2 z2 z c | c3 c c3 c | c2 C2 z2 CC | _B4 G4 | E4 A4 | D2 z2 z2 z d | d2 D2 z2 z d | %62
 d2 D2 z2 dd | d2 D2 z2 DD | c4 A4 | ^F4 B4 | E2 z2 z4 | E4 B4 | (3(cdc) (3(efe) (3(cdc) (3(ABA) | %69
 (3(^GAG) (3(EFE) (3(GAG) (3(BcB) | (3(cdc) (3(efe) (3(cdc) (3(ABA) | %71
 (3(^GAG) (3(EFE) (3(GAG) (3(BcB) | c2 z2 z4 | z .A.c.e .a.e.f.d | e2 z2 z4 | z .A.c.e .a.e.f.d | %76
 .e.A.c.e .a.e.a.g | .f.d.g.f .e.c.f.e | .d.B.e.d c2 A2 | _B4 d4 | f2 d2 _B2 A2 | ^G2 z2 z2 E2 | %82
 ^G4 z2 G2 | B4 z2 B2 | d2 B2 ^G2 E2 | F8 | E2 z2 !fermata!z4 | A4 z4 | c4 z4 | f8- | f8- | %91
 f4 d3 _B | ^G2 G2 z4 | c8 | z2 A2 ^G3 A | E4 z4 | z8 | z8 | z8 |] %99
V:2
!p! !//!A4 !//!A4 | !//!A4!p! !//!A4 | A z A z c z B z | A2 z2!f! (c2 B/A/^G/A/) | %4
!p! ^G2 z2!f! (d2 c/B/A/B/) |!p! A2 z2!f! (e2 d/c/B/A/) | _BBBB ^cccc |!p! ddee"_cresc." f f2 f- | %8
!p! ffdd _BBAA | ^G2!f! (=G2 A2 B2) | !//!G4 !//!G4 | !//!G4 !//!G4 | !//!G4 !//!G4 | %13
"_cresc." !//!A4 !//!A4 |!p! !//!d4 !//!d4 |"_cresc." !//!G4 !//!G4 |!p! A2 z2 z4 | cccc cccc | %18
 .c (c2 _e) .c (c2 e) | d (G^FG FG) z!p! (B | g2) z (e f2) z (B | c) (G^FG FG) z!p! (B | %22
 g2) z (e f2) z (B | g) .g.g.g .g.g.g.g | .g .d.d.d .d.d.d.d | e .e.e.e .e.e.e.e | %26
 .B .B.B.B .B.B.B.B | c .c.c.c .c.c.c.c | c2 z2 d2 z2 | e2 z2 g z a z | g2 z2 g z a z | %31
 g2 z2 cccc | dddd ffff |!f! d!p! d2 d2 (GAB) | c .e.e.e .e.e.e.e | .d .d.d.d .d.d.d.d | %36
 e .c.c.c .c.c.c.c | .B .B.B.B .B.B.B.B | c .A.A.A .A.A.A.A | G2 z2 G2 z2 | G2 z2 .g z .a z | %41
 g2 z2 .g z .a z | g2 z2 cccc | cccc cccc |"_cresc." ccGG ccee |!f! g2 e>e g2 g>g | %46
 (c/G/A/B/ c/d/e/f/) (g/f/e/d/) (e/d/c/B/) | (c/G/A/B/ c/d/e/f/) (g/f/e/d/) (e/d/c/B/) | %48
 !/!c!/!e!/!A!/!c !/!f!/!a!/!d!/!f | B2 g2 f2 d2 | c/!p!c/c/c/ !//!c2 !//!c4 |!f! !//!c4 !//!c4 | %52
 c!p! efg agaf | g/!f!c/c/c/ !//!c2 !//!c4 | c!p! efg agaf | g/!f!c/c/c/ !//!c2 !//!c4 | %56
 c!p! efg agaf | g/!f!c/c/c/ !//!c2 !//!c4 | !//!G4 !//!_B4 | !//!A4 !//!e4 | d .f.g.a ._b.a.b.g | %61
 f/!f!d/d/d/ !//!d2 !//!d4 | d!p! fga _babg | f/!f!d/d/d/ !//!d2 !//!d4 | !//!A4 !//!c4 | %65
 !//!B4 !//!B4 | B2 e4 e2- | e2!p! B2 B2 B2 | z2 c2 c2 c2 | z2 B2 B2 B2 | z2 c2 c2 c2 | %71
 z2 B2 B2 B2 | c .A.c.e .a.e.f.d | e2 z2 .e z .f z | e .A.c.e .a.e.f.d | e2 z2 .e z .f z | %76
 e2 z2 z2 a z | a z g z g z f z | f z e z e2 z2 | !//!_B4 !//!B4 | !//!_B4"_cresc." !//!B2 !//!A2 | %81
 ^G2!f! e2 e2 z2 | z2 ^g2 g2 z2 | z2 b2 b2 z2 | z8 | z2 a2 ^g2 a2 | b4 !fermata!z4 | %87
 z2 z!f! (3(e/^f/^g/ a4) | z2 z!f! (3(^g/a/b/ c'4) | z4 c4 | _B/d/c/B/ A/c/B/A/ B/d/c/B/ A/c/B/A/ | %91
 _B2 z2 z4 | z2 z3/2 b/ b2 z3/2 c'/ | c'4 z4 | z8 | z4 ^G4 | !/!A!/!^G!/!A!/!B !/!c!/!^c!/!d!/!^d | %97
 e2 z2 e2 z2 | A4 z4 |] %99
V:3
!p! !//!E4 !//!E4 | !//!E4!p! !//!E4 | C z C z A z ^G z | A2 z2!f! !//!E4 |!p! E2 z2!f! !//!E4 | %5
!p! E2 z2!f! !//!A4 | FFFF GGGG |!p! AAAA"_cresc." A A2 (A |!p! B)BFF DD^FF | E2!f! (G2 ^F2 =F2) | %10
 !//!E4 !//!E4 | !//!G2!f! .E2 .G2 .c2 | e/!p!E/E/E/ !//!E2 !//!E4 | .F!f! DFA dFAd | %14
!p! !//!G4 !//!G4 | .E"_cresc." CEG cegc |!p! F2 z2 z4 | AAAA GGGG | AAAA AAAA | %19
 B (G^FG FG!p!=FD) | .e.g.e.c .B.d.B.G | c (G^FG FG!p!=FD) | .e.g.e.c .B.d.B.G | %23
 .c .e.e.e .e.e.e.e | .d .B.B.B .B.B.B.B | A .c.c.c .c.c.c.c | .G .G.G.G .G.G.G.G | %27
 F .A.A.A .A.A.A.A | G2 z2 G2 z2 | G2 z2 e z f z | e2 z2 e z f z | e2 z2 EEEE | AAAA dddd | %33
!f! B!p! B2 B2 (DEF) | E .G.G.G .G.G.G.G | .G .B.B.B .B.B.B.B | A .E.E.E .E.E.E.E | %37
 .E .G.G.G .G.G.G.G | F .C.C.C .C.C.C.C | C2 z2 D2 z2 | E2 z2 .e z .f z | e2 z2 .e z .f z | %42
 e2 z2 EEEE | AAAA AAAA |"_cresc." GGEE GGcc |!f! e2 c>c f2 B>B | c2 z2 z2 F2 | E2 z2 z2 F2 | %48
 !/!c!/!e!/!A!/!c !/!F!/!A!/!D!/!F | B2 e2 d2 B2 | E2 z2 z4 | z!f! EFG AGAF | E!p! cde fefd | %53
 e!f! EFG AGAF | G!p! cde fefd | e!f! EFG AGAF | G!p! cde fefd | e!f! EFG AGAF | !//!E4 !//!E4 | %59
 !//!G4 !//!G4 | F .d.e.f .g.f.g.e | .d!f! FGA _BABG | F!p! def gfge | d!f! FGA _BABG | %64
 !//!^F4 !//!F4 | !//!A4 !//!A4 | ^G2 B4 B2- | B2!p! ^G2 G2 G2 | z2 A2 A2 A2 | z2 ^G2 G2 G2 | %70
 z2 A2 A2 A2 | z2 ^G2 G2 G2 | A2 z2 .c z .d z | c2 z2 .c z .d z | c2 z2 .c z .d z | %75
 c2 z2 .c z .d z | c2 z2 z2 e z | f z d z e z c z | d z B z c2 z2 | !//!F4 !//!F4 | %80
 !//!F4"_cresc." !//!F2 !//!^F2 | E2!f! B2 B2 z2 | z2 e2 e2 z2 | z2 ^g2 g2 z2 | z8 | z2 d4 d2 | %86
 d4 !fermata!z4 | z2 z!f! (3(E/^F/^G/ A4) | z2 z!f! (3(^G/A/B/ c4) | z4 A4 | ddcc ddcc | d2 z2 z4 | %92
 z2 z3/2 ^g/ g2 z3/2 a/ | a4 z4 | z8 | z4 B4 | AAAA AAAA | c2 z2 ^G2 z2 | C4 z4 |] %99
V:4
!p! !//!C,4 !//!C,4 |!f!{E,^F,^G,} A,2 E,2!p! C,2 A,,2 | A,,A,,A,,A,, A,,A,,A,,A,, | %3
 A,,A,,A,,A,,!f! A,,A,,A,,A,, |!p! B,,B,,B,,B,,!f! B,,B,,B,,B,, |!p! C,C,C,C,!f! C,C,C,C, | %6
 D,D,D,D, E,E,E,E, |!p! F,F,^C,C,"_cresc." D,D,D,D, |!p! D,D,D,D, D,D,^D,D, | %9
 E,2!f! (E,2 ^D,2 =D,2) | C,C,C,C, C,C,C,C, | C,C,C,C, C,C,C,C, | C,C,C,C, C,C,C,C, | %13
"_cresc." C,C,C,C, C,C,C,C, |!p! B,,B,,B,,B,, B,,B,,B,,B,, |"_cresc." _B,,B,,B,,B,, B,,B,,B,,B,, | %16
!p! A,,2 z2 z4 | A,A,A,A, G,G,G,G, | ^F,F,F,F, F,F,F,F, | G, (G,^F,G, F,G,!p!=F,D,) | %20
 .E,.G,.E,.C, .B,,.D,.B,,.G,, | C, (G,^F,G, F,G,!p!=F,D,) | .E,.G,.E,.C, .B,,.D,.B,,.G,, | %23
 .C, .C.C.C .C.C.C.C | B,4 z4 | z .A,.A,.A, .A,.A,.A,.A, | G,4 z4 | z .F,.F,.F, .F,.F,.F,.F, | %28
 E,2 z2 B,2 z2 | C2 z2 C z C z | C2 z2 C z C z | C2 z2 A,A,A,A, | F,F,F,F, D,D,D,D, | %33
 G,G,G,G, G,,G,,G,,G,, | C, .C.C.C .C.C.C.C | B,4 z4 | z .A,.A,.A, .A,.A,.A,.A, | G,4 z4 | %38
 z .F,.F,.F, .F,.F,.F,.F, | E,2 z2 B,2 z2 | C2 z2 .C z .C z | C2 z2 .C z .C z | C2 z2 E,E,E,E, | %43
 F,F,F,F, ^F,F,F,F, |"_cresc." G,G,G,G, E,E,C,C, |!f! G,,2 z2 G,,2 z2 | C,2 z2 z2 G,,2 | %47
 C,2 z2 z2 G,,2 | C,2 A,C F,A, D,F, | B,,2 C,2 F,2 G,2 | C,2 z2 z4 | z!f! C,D,E, F,E,F,D, | %52
 C,/!p!C,/C,/C,/ !//!C,2 !//!C,4 | .C,!f! C,D,E, F,E,F,D, | C,/!p!C,/C,/C,/ !//!C,2 !//!C,4 | %55
 .C,!f! C,D,E, F,E,F,D, | C,/!p!C,/C,/C,/ !//!C,2 !//!C,4 | .C,!f! C,D,E, F,E,F,D, | %58
 ^C,C,C,C, C,C,C,C, | ^C,C,C,C, C,C,C,C, | !//!D,4 !//!D,4 | .D,!f! D,E,F, G,F,G,E, | %62
 D,/!p!D,/D,/D,/ !//!D,2 !//!D,4 | .D,!f! D,E,F, G,F,G,E, | ^D,D,D,D, D,D,D,D, | %65
 ^D,D,D,D, D,D,D,D, | E, E,^G,E, B,,E,^G,,B,, | E,2 z2 z4 | E,2 z2 z4 | E,2 z2 z4 | E,2 z2 z4 | %71
 E,2 z2 z4 | A,2 z2 .A, z .A, z | A,2 z2 .A, z .A, z | A,2 z2 .A, z .A, z | A,2 z2 .A, z .A, z | %76
 A,2 z2 z2 C z | D z B, z C z A, z | B, z ^G, z A,2 z2 | D,D,D,D, D,D,D,D, | %80
 D,D,D,D,"_cresc." D,D,^D,D, | E,2!f! E2 E,2 z2 | z2 E2 E,2 z2 | z2 E2 E,2 z2 | z8 | %85
 z2 D,2 B,,2 A,,2 | ^G,,4 !fermata!z4 | z4!f! A,,4 | z4!f! C,4 | z4 _E,4 | D,D,_E,E, D,D,E,E, | %91
 D,2 z2 z4 | z2 z3/2 D,/ D,2 z3/2 ^D,/ | ^D,4 z4 | z8 | z4 E,4 | F,6 ^F,2 | A,2 z2 E,2 z2 | %98
 A,,4 z4 |] %99

